assets/done.svg

<svg fill="#40C057" xmlns="http://www.w3.org/2000/svg"  viewBox="0 0 64 64" width="64px" height="64px"><path d="M 30 4 C 14.561 4 2 16.561 2 32 C 2 47.439 14.561 60 30 60 L 33 60 C 48.439 60 61 47.439 61 32 C 61 26.600951 59.460842 21.556431 56.802734 17.275391 L 62.039062 12.039062 L 59.210938 9.2109375 L 54.423828 13.998047 C 49.283425 7.890176 41.589024 4 33 4 L 30 4 z M 33 8 C 40.486401 8 47.18112 11.446946 51.585938 16.835938 L 33.375 35.046875 L 21.664062 23.335938 L 18.835938 26.164062 L 33.375 40.703125 L 53.882812 20.195312 C 55.862819 23.683904 57 27.710097 57 32 C 57 45.234 46.233 56 33 56 C 19.767 56 9 45.234 9 32 C 9 18.766 19.767 8 33 8 z"/></svg>

<svg xmlns="http://www.w3.org/2000/svg" width="64" height="64" fill="#40C057"><path d="M30 4C14.561 4 2 16.561 2 32s12.561 28 28 28h3c15.439 0 28-12.561 28-28 0-5.399-1.54-10.444-4.197-14.725l5.236-5.236-2.828-2.828-4.787 4.787C49.284 7.89 41.589 4 33 4zm3 4c7.486 0 14.181 3.447 18.586 8.836l-18.211 18.21-11.71-11.71-2.83 2.828 14.54 14.54 20.508-20.509A23.84 23.84 0 0 1 57 32c0 13.234-10.767 24-24 24S9 45.234 9 32 19.767 8 33 8"/></svg>
